X: 11
T:Fisher's Hornpipe
R:hornpipe
C:Trad
M:4/4
L:1/8
K:D
A2 | dAFA GBAG | FAFA GBAG | FDFD GEGE | FDFD E2 c2 | dAFA GBAG | FAFA G
BAG | FAdf g2 ec | d2 d2 d2 :|
f2 | ecAc efge | fdAd fgaf | ecAc efgf | edcB A2 A2 | BGGG BcdB | AGFG A
2 A2| BcdB AGFE | D2 d2 d2 :|
